X:438
T:Barnyards o' Delgaty, The
S:Childhood memories
Z:Nigel Gatherer
M:2/4
L:1/8
K:D
f>e dA | Bd BA | f>e dA | Bd e2  | 
f>e dA | Bd BA | AA a>g | fe d2 :|
A>D DD | FE FB | A>D DD | FA E2  |
A>D DD | FE FB | AA a>g | fe d2 :|]3
